dist/assets/uwm-icons/icon_pinterest.svg

<svg width="24" height="24" xmlns="http://www.w3.org/2000/svg"><g fill="none" fill-rule="evenodd"><path fill="#FFF" d="M0 0h24v24H0z"/><path d="M12.454 3C7.499 3 5 6.553 5 9.516c0 1.794.679 3.389 2.136 3.983.238.099.453.004.522-.261.048-.182.162-.643.213-.837.069-.26.043-.352-.15-.581-.42-.495-.689-1.136-.689-2.046 0-2.634 1.973-4.994 5.135-4.994 2.801 0 4.34 1.711 4.34 3.996 0 3.008-1.331 5.546-3.307 5.546-1.091 0-1.907-.902-1.645-2.009.313-1.321.92-2.747.92-3.701 0-.853-.458-1.565-1.407-1.565-1.115 0-2.011 1.153-2.011 2.699 0 .984.333 1.65.333 1.65L8.048 17.08c-.399 1.687-.06 3.754-.031 3.963.017.124.175.153.248.06.102-.134 1.431-1.775 1.882-3.414.128-.463.734-2.867.734-2.867.363.693 1.422 1.3 2.548 1.3 3.353 0 5.628-3.056 5.628-7.146C19.057 5.882 16.436 3 12.454 3" fill="#000"/></g></svg>

<?xml version="1.0" encoding="UTF-8"?>
<svg width="24px" height="24px" viewBox="0 0 24 24" version="1.1" xmlns="http://www.w3.org/2000/svg" xmlns:xlink="http://www.w3.org/1999/xlink">
    <!-- Generator: Sketch 48.2 (47327) - http://www.bohemiancoding.com/sketch -->
    <title>icon_pinterest</title>
    <desc>Created with Sketch.</desc>
    <defs></defs>
    <g id="Icons" stroke="none" stroke-width="1" fill="none" fill-rule="evenodd">
        <g id="icon_pinterest">
            <rect id="Rectangle" fill="#FFFFFF" x="0" y="0" width="24" height="24"></rect>
            <path d="M12.454,3 C7.499,3 5,6.553 5,9.516 C5,11.31 5.679,12.905 7.136,13.499 C7.374,13.598 7.589,13.503 7.658,13.238 C7.706,13.056 7.82,12.595 7.871,12.401 C7.94,12.141 7.914,12.049 7.721,11.82 C7.301,11.325 7.032,10.684 7.032,9.774 C7.032,7.14 9.005,4.78 12.167,4.78 C14.968,4.78 16.507,6.491 16.507,8.776 C16.507,11.784 15.176,14.322 13.2,14.322 C12.109,14.322 11.293,13.42 11.555,12.313 C11.868,10.992 12.475,9.566 12.475,8.612 C12.475,7.759 12.017,7.047 11.068,7.047 C9.953,7.047 9.057,8.2 9.057,9.746 C9.057,10.73 9.39,11.396 9.39,11.396 C9.39,11.396 8.248,16.232 8.048,17.08 C7.649,18.767 7.988,20.834 8.017,21.043 C8.034,21.167 8.192,21.196 8.265,21.103 C8.367,20.969 9.696,19.328 10.147,17.689 C10.275,17.226 10.881,14.822 10.881,14.822 C11.244,15.515 12.303,16.122 13.429,16.122 C16.782,16.122 19.057,13.066 19.057,8.976 C19.057,5.882 16.436,3 12.454,3" id="Fill-201" fill="#000000"></path>
        </g>
    </g>
</svg>
